icons/1_Primary/Asana.svg

<svg xmlns="http://www.w3.org/2000/svg" width="1024" height="1024" fill="none">
   <g clip-path="url(#a)">
      <path fill="#FF837D" d="M512 1024c282.77 0 512-229.23 512-512S794.77 0 512 0 0 229.23 0 512s229.23 512 512 512Z"/>
      <path fill="#fff" d="M304.262 646.522c.498 5.623 4.989 12.754 12.772 12.754h4.56a3.208 3.208 0 0 0 3.206-3.205V555.943h-.018a3.214 3.214 0 0 0-3.188-3.034h-14.126a3.198 3.198 0 0 0-3.188 3.034h-.018v8.143c-8.657-10.663-22.286-15.069-35.966-15.069C237.2 549 212 574.2 212 605.28c0 31.097 25.2 56.297 56.296 56.297 13.663 0 28.578-5.297 35.966-15.051v-.004Zm-35.914-4.646c-19.765 0-35.794-16.388-35.794-36.6s16.029-36.583 35.794-36.583c19.766 0 35.794 16.389 35.794 36.583 0 20.212-16.028 36.6-35.794 36.6Zm265.938 4.646c.497 5.622 4.988 12.754 12.771 12.754h4.56a3.208 3.208 0 0 0 3.206-3.205V555.943h-.017a3.21 3.21 0 0 0-3.189-3.035h-14.125c-1.715 0-3.104 1.355-3.206 3.035v8.143c-8.658-10.663-22.286-15.069-35.966-15.069-31.08 0-56.297 25.2-56.297 56.298 0 31.097 25.2 56.297 56.297 56.297 13.68-.035 28.594-5.332 35.966-15.086v-.004Zm-35.898-4.646c-19.765 0-35.794-16.388-35.794-36.6s16.029-36.583 35.794-36.583c19.765 0 35.795 16.389 35.795 36.583 0 20.212-16.029 36.6-35.795 36.6Zm293.058 4.646c.497 5.622 4.989 12.754 12.771 12.754h4.56c1.766 0 3.223-1.44 3.223-3.205V555.943h-.017c-.086-1.68-1.491-3.035-3.188-3.035h-14.127a3.203 3.203 0 0 0-3.188 3.035h-.017v8.143c-8.657-10.663-22.286-15.069-35.966-15.069-31.097 0-56.297 25.2-56.297 56.298 0 31.097 25.2 56.297 56.297 56.297 13.663-.035 28.56-5.332 35.949-15.086v-.004Zm-35.914-4.646c-19.766 0-35.795-16.388-35.795-36.6s16.029-36.583 35.795-36.583c19.766 0 35.794 16.389 35.794 36.583.017 20.212-16.011 36.6-35.794 36.6Zm-74.198 8.078v-51.822c0-29.212-18.429-48.91-47.812-48.91-14.022 0-26.862 8.04-29.588 15.086-.874-5.45-3.772-11.176-12.738-11.176h-4.576a3.215 3.215 0 0 0-3.206 3.222v100.128h.017a3.21 3.21 0 0 0 3.189 3.034h14.125c.223 0 .429-.016.635-.068.094-.021.185-.049.274-.086.102-.034.206-.051.308-.102.12-.052.24-.12.36-.19.052-.034.12-.068.172-.102.137-.086.274-.205.394-.308.017-.017.052-.035.068-.052.14-.136.267-.285.378-.446.36-.48.566-1.062.6-1.697h.017v-59.142c0-15.687 12.72-28.407 28.405-28.407s28.406 12.72 28.406 28.407l.018 49.44v-.018 9.72h.016a3.21 3.21 0 0 0 3.19 3.035h14.125c.223 0 .429-.018.634-.07.086-.016.155-.05.24-.068.12-.034.24-.068.343-.102.12-.052.223-.12.326-.172l.206-.103c.136-.085.256-.189.36-.291.034-.034.068-.052.085-.069a3.81 3.81 0 0 0 .36-.411c0-.018.017-.018.017-.034.343-.48.566-1.064.6-1.68h.018v-.172l.034-6.374Zm-322.8-17.776c9.429 6.531 19.714 9.703 29.606 9.703 9.412 0 19.148-4.885 19.148-13.389 0-11.348-21.222-13.114-34.542-17.64-13.338-4.525-24.823-13.903-24.823-29.056 0-23.212 20.674-32.795 39.977-32.795 12.223 0 24.84 4.028 33.034 9.806 2.812 2.142 1.098 4.594 1.098 4.594l-7.818 11.16c-.874 1.251-2.417 2.348-4.611.977-2.211-1.354-9.926-6.822-21.703-6.822s-18.874 5.433-18.874 12.17c0 8.092 9.222 10.63 20.022 13.39 18.824 5.073 39.344 11.176 39.344 34.233 0 20.452-19.132 33.087-40.27 33.087-16.028 0-29.656-4.56-41.09-12.96-2.384-2.384-.72-4.595-.72-4.595l7.765-11.092c1.595-2.091 3.583-1.371 4.457-.771Zm202.96-316.373c0 27.275-22.114 49.406-49.389 49.406-27.291 0-49.405-22.115-49.405-49.406s22.114-49.405 49.405-49.405c27.275 0 49.389 22.114 49.389 49.405Zm-113.568 61.749c-27.274 0-49.406 22.114-49.406 49.388 0 27.274 22.115 49.406 49.406 49.406 27.292 0 49.406-22.114 49.406-49.406 0-27.274-22.114-49.388-49.406-49.388Zm128.352 0c-27.291 0-49.406 22.114-49.406 49.406 0 27.29 22.115 49.405 49.406 49.405 27.274 0 49.406-22.114 49.406-49.405 0-27.292-22.115-49.406-49.406-49.406Z"/>
   </g>
   <defs>
      <clipPath id="a">
         <path fill="#fff" d="M0 0h1024v1024H0z"/>
      </clipPath>
   </defs>
</svg>

<svg width="1024" height="1024" viewBox="0 0 1024 1024" fill="none" xmlns="http://www.w3.org/2000/svg">
<g clip-path="url(#clip0_2_1515)">
<path d="M512 1024C794.77 1024 1024 794.77 1024 512C1024 229.23 794.77 0 512 0C229.23 0 0 229.23 0 512C0 794.77 229.23 1024 512 1024Z" fill="#FF837D"/>
<path d="M304.262 646.522C304.76 652.145 309.251 659.276 317.034 659.276H321.594C322.444 659.275 323.258 658.937 323.859 658.336C324.46 657.735 324.798 656.921 324.8 656.071V555.943H324.782C324.737 555.127 324.382 554.358 323.79 553.794C323.197 553.23 322.412 552.914 321.594 552.909H307.468C306.649 552.911 305.862 553.226 305.269 553.791C304.676 554.355 304.322 555.126 304.28 555.943H304.262V564.086C295.605 553.423 281.976 549.017 268.296 549.017C237.2 549 212 574.2 212 605.28C212 636.377 237.2 661.577 268.296 661.577C281.959 661.577 296.874 656.28 304.262 646.526V646.522ZM268.348 641.876C248.583 641.876 232.554 625.488 232.554 605.276C232.554 585.064 248.583 568.693 268.348 568.693C288.114 568.693 304.142 585.082 304.142 605.276C304.142 625.488 288.114 641.876 268.348 641.876ZM534.286 646.522C534.783 652.144 539.274 659.276 547.057 659.276H551.617C552.467 659.275 553.281 658.937 553.882 658.336C554.483 657.735 554.821 656.921 554.823 656.071V555.943H554.806C554.761 555.126 554.406 554.357 553.813 553.793C553.221 553.229 552.435 552.913 551.617 552.908H537.492C535.777 552.908 534.388 554.263 534.286 555.943V564.086C525.628 553.423 512 549.017 498.32 549.017C467.24 549.017 442.023 574.217 442.023 605.315C442.023 636.412 467.223 661.612 498.32 661.612C512 661.577 526.914 656.28 534.286 646.526V646.522ZM498.388 641.876C478.623 641.876 462.594 625.488 462.594 605.276C462.594 585.064 478.623 568.693 498.388 568.693C518.153 568.693 534.183 585.082 534.183 605.276C534.183 625.488 518.154 641.876 498.388 641.876ZM791.446 646.522C791.943 652.144 796.435 659.276 804.217 659.276H808.777C810.543 659.276 812 657.836 812 656.071V555.943H811.983C811.897 554.263 810.492 552.908 808.795 552.908H794.668C793.849 552.91 793.062 553.226 792.469 553.79C791.876 554.355 791.522 555.126 791.48 555.943H791.463V564.086C782.806 553.423 769.177 549.017 755.497 549.017C724.4 549.017 699.2 574.217 699.2 605.315C699.2 636.412 724.4 661.612 755.497 661.612C769.16 661.577 784.057 656.28 791.446 646.526V646.522ZM755.532 641.876C735.766 641.876 719.737 625.488 719.737 605.276C719.737 585.064 735.766 568.693 755.532 568.693C775.298 568.693 791.326 585.082 791.326 605.276C791.343 625.488 775.315 641.876 755.532 641.876ZM681.334 649.954V598.132C681.334 568.92 662.905 549.222 633.522 549.222C619.5 549.222 606.66 557.262 603.934 564.308C603.06 558.858 600.162 553.132 591.196 553.132H586.62C585.768 553.135 584.951 553.475 584.35 554.08C583.749 554.684 583.412 555.502 583.414 556.354V656.482H583.431C583.476 657.299 583.831 658.068 584.424 658.632C585.016 659.196 585.802 659.512 586.62 659.516H600.745C600.968 659.516 601.174 659.5 601.38 659.448C601.474 659.427 601.565 659.399 601.654 659.362C601.756 659.328 601.86 659.311 601.962 659.26C602.082 659.208 602.202 659.14 602.322 659.07C602.374 659.036 602.442 659.002 602.494 658.968C602.631 658.882 602.768 658.763 602.888 658.66C602.905 658.643 602.94 658.625 602.956 658.608C603.096 658.472 603.223 658.323 603.334 658.162C603.694 657.682 603.9 657.1 603.934 656.465H603.951V597.323C603.951 581.636 616.671 568.916 632.356 568.916C648.041 568.916 660.762 581.636 660.762 597.323L660.78 646.763V646.745V656.465H660.796C660.841 657.283 661.196 658.052 661.789 658.616C662.382 659.18 663.168 659.496 663.986 659.5H678.111C678.334 659.5 678.54 659.482 678.745 659.43C678.831 659.414 678.9 659.38 678.985 659.362C679.105 659.328 679.225 659.294 679.328 659.26C679.448 659.208 679.551 659.14 679.654 659.088L679.86 658.985C679.996 658.9 680.116 658.796 680.22 658.694C680.254 658.66 680.288 658.642 680.305 658.625C680.434 658.497 680.555 658.36 680.665 658.214C680.665 658.196 680.682 658.196 680.682 658.18C681.025 657.7 681.248 657.116 681.282 656.5H681.3V656.328L681.334 649.954ZM358.534 632.178C367.963 638.709 378.248 641.881 388.14 641.881C397.552 641.881 407.288 636.996 407.288 628.492C407.288 617.144 386.066 615.378 372.746 610.852C359.408 606.327 347.923 596.949 347.923 581.796C347.923 558.584 368.597 549.001 387.9 549.001C400.123 549.001 412.74 553.029 420.934 558.807C423.746 560.949 422.032 563.401 422.032 563.401L414.214 574.561C413.34 575.812 411.797 576.909 409.603 575.538C407.392 574.184 399.677 568.716 387.9 568.716C376.123 568.716 369.026 574.149 369.026 580.886C369.026 588.978 378.248 591.516 389.048 594.276C407.872 599.349 428.392 605.452 428.392 628.509C428.392 648.961 409.26 661.596 388.122 661.596C372.094 661.596 358.466 657.036 347.032 648.636C344.648 646.252 346.312 644.041 346.312 644.041L354.077 632.949C355.672 630.858 357.66 631.578 358.534 632.178ZM561.494 315.805C561.494 343.08 539.38 365.211 512.105 365.211C484.814 365.211 462.7 343.096 462.7 315.805C462.7 288.514 484.814 266.4 512.105 266.4C539.38 266.4 561.494 288.514 561.494 315.805ZM447.926 377.554C420.652 377.554 398.52 399.668 398.52 426.942C398.52 454.216 420.635 476.348 447.926 476.348C475.218 476.348 497.332 454.234 497.332 426.942C497.332 399.668 475.218 377.554 447.926 377.554ZM576.278 377.554C548.987 377.554 526.872 399.668 526.872 426.96C526.872 454.25 548.987 476.365 576.278 476.365C603.552 476.365 625.684 454.251 625.684 426.96C625.684 399.668 603.569 377.554 576.278 377.554Z" fill="white"/>
</g>
<defs>
<clipPath id="clip0_2_1515">
<rect width="1024" height="1024" fill="white"/>
</clipPath>
</defs>
</svg>
